communes/173.svg

<?xml version="1.0" encoding="UTF-8" standalone="no"?>
<svg
   xmlns:dc="http://purl.org/dc/elements/1.1/"
   xmlns:cc="http://creativecommons.org/ns#"
   xmlns:rdf="http://www.w3.org/1999/02/22-rdf-syntax-ns#"
   xmlns:svg="http://www.w3.org/2000/svg"
   xmlns="http://www.w3.org/2000/svg"
   xmlns:sodipodi="http://sodipodi.sourceforge.net/DTD/sodipodi-0.dtd"
   xmlns:inkscape="http://www.inkscape.org/namespaces/inkscape"
   version="1.0"
   width="224.05829"
   height="262.44946"
   id="svg2780"
   sodipodi:docname="173.svg">
  <metadata
     id="metadata12">
    <rdf:RDF>
      <cc:Work
         rdf:about="">
        <dc:format>image/svg+xml</dc:format>
        <dc:type
           rdf:resource="http://purl.org/dc/dcmitype/StillImage" />
      </cc:Work>
    </rdf:RDF>
  </metadata>
  <sodipodi:namedview
     pagecolor="#ffffff"
     bordercolor="#666666"
     borderopacity="1"
     objecttolerance="10"
     gridtolerance="10"
     guidetolerance="10"
     inkscape:pageopacity="0"
     inkscape:pageshadow="2"
     inkscape:window-width="640"
     inkscape:window-height="480"
     id="namedview10" />
  <defs
     id="defs2782" />
  <g
     transform="translate(-26.012787,-784.95711)"
     id="layer1">
    <path
       d="M 27.012787,785.95711 L 31.050207,955.55208 C 33.93407,1076.6914 242.14979,1076.6914 245.03367,955.55208 L 249.07108,785.95711 L 27.012787,785.95711 z "
       style="fill:#ffffff;fill-opacity:1;fill-rule:evenodd;stroke:#000000;stroke-width:2;stroke-linecap:butt;stroke-miterlimit:4;stroke-dashoffset:0;stroke-opacity:1"
       id="path3282" />
    <path
       d="M 126,125 L 233.125,125 L 236.125,-0.65625 L 126,125 z M 126,125 L 17.0625,125 L 18.125,168.9375 C 18.701339,193.14715 27.487211,212.49818 41.1875,227.03125 L 126,125 z "
       transform="translate(12.938287,786.61413)"
       style="fill:#000000;fill-opacity:1;stroke:none"
       id="path5190" />
    <path
       d="M 14.0625,-0.65625 L 126,125 L 126,-0.65625 L 14.0625,-0.65625 z M 126,125 L 126,259.78125 C 159.92708,259.55934 193.73536,246.81786 213.78125,221.5625 L 126,125 z "
       transform="translate(12.938287,786.61413)"
       style="fill:#000000;fill-opacity:1;stroke:none"
       id="path11229" />
    <path
       d="M 16.0625,83.34375 L 18.0625,166.5625 L 232.15625,166.5625 L 234.125,83.34375 L 16.0625,83.34375 z "
       transform="translate(12.938287,786.61413)"
       style="opacity:1;fill:#efd905;fill-opacity:1;fill-rule:evenodd;stroke:#000000;stroke-width:1.99842525;stroke-linecap:round;stroke-linejoin:miter;stroke-miterlimit:4;stroke-dasharray:none;stroke-dashoffset:0;stroke-opacity:1"
       id="rect4204" />
    <path
       d="M 122.60035,898.36417 C 129.94195,898.05658 130.8647,894.67823 132.53793,893.60173 C 134.29831,892.46916 137.82982,891.94213 137.68917,890.30335 C 137.54904,888.6705 135.42114,890.93535 132.32166,890.00768 C 129.27931,889.0971 128.55416,886.6901 128.4221,885.47974 C 128.29004,884.26938 130.93271,885.61238 131.88739,885.62037 C 132.6348,885.62662 133.13002,885.57938 133.26706,884.58465 C 127.5978,884.16044 123.14099,885.91227 121.01387,884.97634 C 118.93881,884.06332 116.74512,880.79853 119.18952,880.7572 C 121.57162,880.71587 120.85203,882.88608 124.40364,883.02289 C 127.95231,883.1596 131.87941,882.75327 133.20924,882.81407 C 133.12049,880.95058 130.34332,881.31294 125.5871,881.40623 C 127.24746,876.14198 131.63824,872.19407 137.92738,872.45207 C 144.2102,872.70982 148.27978,875.23865 148.34656,882.58026 C 148.41334,890.04647 144.38489,891.61745 144.47268,892.97078 C 144.56449,894.38615 147.8843,897.95334 154.79,898.86254 C 161.70348,899.77276 164.27977,904.22008 167.62315,902.60036 C 170.91919,901.00358 171.85934,896.86906 168.6199,891.8853 C 165.43717,886.98879 169.24288,878.42915 180.70551,878.42915 C 192.16814,878.42915 221.42705,878.17997 224.61452,878.05538 C 227.67759,877.93564 230.04467,873.33503 232.41196,874.94764 C 234.69488,876.50278 234.12868,880.40385 231.16602,884.78344 C 228.30036,889.01964 196.65909,887.7482 193.28949,887.02613 C 189.80086,886.27856 188.67951,889.7672 192.16814,890.51476 C 195.63329,891.25729 226.43145,894.1593 228.92333,892.91336 C 231.3674,891.69132 232.66115,889.70524 234.15627,891.54283 C 235.70223,893.44289 234.03442,901.12344 223.31661,902.72496 C 212.47694,904.34468 193.87852,899.47683 191.29599,898.73795 C 188.68307,897.99038 187.68988,899.98389 189.30604,900.73146 C 190.9222,901.47902 208.73912,908.02696 212.35235,909.45302 C 215.85802,910.83663 218.2714,910.48842 220.9914,910.59966 C 223.70916,910.7108 227.40692,907.07218 229.79549,909.88234 C 232.24609,912.76549 225.27988,919.4206 215.84098,919.66972 C 206.39961,919.9189 188.99878,908.88452 187.06335,907.21034 C 185.19089,905.59062 182.94464,906.96115 184.69251,908.45627 C 186.51337,910.01383 203.257,925.40103 209.36209,925.40104 C 215.59179,925.40104 215.9378,930.63398 210.60803,931.63073 C 205.27826,932.62748 196.64996,930.75858 192.54192,926.77157 C 188.43388,922.78456 178.52719,913.43847 177.46607,912.19409 C 176.34473,910.87909 174.35122,911.8203 175.59716,913.56462 C 176.90271,915.39239 183.69576,927.06561 185.56467,927.51914 C 187.55145,928.00126 190.17464,931.50614 184.9417,931.50614 C 179.70876,931.50614 174.33947,926.40607 172.33707,921.91241 C 170.28845,917.31503 170.07658,916.6632 168.5081,914.37688 C 166.88201,912.00658 165.13536,912.23864 165.25588,915.9319 C 165.38046,919.74962 167.54969,922.03826 169.11765,924.16277 C 170.64055,926.22622 168.39472,929.09007 164.38371,926.89616 C 160.31911,924.67294 158.94038,920.13515 157.70658,917.14666 C 156.49013,914.2002 158.0315,910.50531 154.29161,910.50531 C 150.5538,910.50531 144.36895,911.57112 151.42595,918.29919 C 158.41795,924.96529 160.89509,927.76832 160.89509,929.51263 C 160.89509,931.25694 171.61016,936.11612 173.47906,936.98827 C 175.24629,937.81298 177.60578,938.90878 179.24687,936.38668 C 180.86227,933.90407 187.15501,931.49103 188.78629,933.54499 C 190.37503,935.54539 190.37481,935.46292 187.72185,935.5359 C 185.15699,935.60888 181.93277,938.90878 185.31548,938.73258 C 188.78605,938.5518 193.9616,941.34214 194.0798,943.78932 C 194.19814,946.23916 191.50242,948.48114 191.26835,945.96162 C 191.03338,943.43248 179.73098,940.25428 182.32523,942.7347 C 184.96307,945.25681 187.07491,944.97739 187.07491,949.21358 C 187.07491,953.44977 186.17084,951.91446 182.19178,947.43904 C 178.17406,942.92013 176.0653,941.16805 172.0783,945.79867 C 168.0913,950.42929 171.1675,953.65808 167.78683,950.47723 C 164.4498,947.33744 170.18874,944.05622 170.89355,942.76493 C 171.61953,941.43486 172.60691,939.97852 169.11828,938.98177 C 165.62965,937.98502 160.75955,934.13283 159.12053,934.5115 C 157.46432,934.89415 154.91458,933.25045 151.42595,930.01101 C 147.93732,926.77157 143.20275,922.78457 141.95682,928.76507 C 140.71088,934.74558 142.95358,938.46827 149.20097,938.04288 C 155.44301,937.61787 157.41059,937.31627 159.7096,941.62222 C 162.02787,945.96422 160.3967,947.45416 158.65239,945.70984 C 156.90807,943.96552 154.80867,944.46372 154.07891,946.07736 C 153.31623,947.7638 148.89133,945.70984 147.43895,944.4639 C 145.97631,943.20916 142.86554,940.79601 142.79248,944.15685 C 142.71949,947.51461 142.5584,950.22545 138.50828,950.22545 C 134.45816,950.22545 134.29707,947.51461 134.22408,944.15685 C 134.15102,940.79601 131.04025,943.20916 129.57761,944.4639 C 128.12523,945.70984 123.70033,947.7638 122.93765,946.07736 C 122.20789,944.46372 120.10849,943.96552 118.36417,945.70984 C 116.61986,947.45416 114.98869,945.96422 117.30696,941.62222 C 119.60597,937.31627 121.57355,937.61787 127.81559,938.04288 C 134.06298,938.46827 136.30568,934.74558 135.05974,928.76507 C 133.81381,922.78457 129.07924,926.77157 125.59061,930.01101 C 122.10198,933.25045 119.55224,934.89415 117.89603,934.5115 C 116.25701,934.13283 111.38691,937.98502 107.89828,938.98177 C 104.40965,939.97852 105.39703,941.43486 106.12301,942.76493 C 106.82782,944.05622 112.56676,947.33744 109.22973,950.47723 C 105.84906,953.65808 108.92526,950.42929 104.93826,945.79867 C 100.95126,941.16805 98.842501,942.92013 94.824782,947.43904 C 90.845717,951.91446 89.941652,953.44977 89.941652,949.21358 C 89.941652,944.97739 92.053487,945.25681 94.691334,942.7347 C 97.285583,940.25428 85.98318,943.43248 85.748214,945.96162 C 85.514143,948.48114 82.818424,946.23916 82.936757,943.78932 C 83.054962,941.34214 88.230508,938.5518 91.701081,938.73258 C 95.083788,938.90878 91.859574,935.60888 89.294711,935.5359 C 86.641748,935.46292 86.641535,935.54539 88.230272,933.54499 C 89.861551,931.49103 96.154295,933.90407 97.769687,936.38668 C 99.410784,938.90878 101.77027,937.81298 103.5375,936.98827 C 105.4064,936.11612 116.12147,931.25694 116.12147,929.51263 C 116.12147,927.76832 118.59861,924.96529 125.59061,918.29919 C 132.64761,911.57112 126.46276,910.50531 122.72495,910.50531 C 118.98506,910.50531 120.52643,914.2002 119.30998,917.14666 C 118.07618,920.13515 116.69745,924.67294 112.63285,926.89616 C 108.62184,929.09007 106.37601,926.22622 107.89891,924.16277 C 109.46687,922.03826 111.6361,919.74962 111.76068,915.9319 C 111.8812,912.23864 110.13455,912.00658 108.50846,914.37688 C 106.93998,916.6632 106.72811,917.31503 104.67949,921.91241 C 102.67709,926.40607 97.307805,931.50614 92.074863,931.50614 C 86.841921,931.50614 89.465116,928.00126 91.451893,927.51914 C 93.320801,927.06561 100.11385,915.39239 101.4194,913.56462 C 102.66534,911.8203 100.67183,910.87909 99.550494,912.19409 C 98.489371,913.43847 88.582677,922.78456 84.474637,926.77157 C 80.366597,930.75858 71.738298,932.62748 66.408527,931.63073 C 61.078756,930.63398 61.424772,925.40104 67.654466,925.40104 C 73.759565,925.40103 90.50319,910.01383 92.32405,908.45627 C 94.071922,906.96115 91.825675,905.59062 89.953209,907.21034 C 88.017784,908.88452 70.616953,919.9189 61.175585,919.66972 C 51.736681,919.4206 44.77047,912.76549 47.221073,909.88234 C 49.609636,907.07218 53.307398,910.7108 56.025158,910.59966 C 58.745157,910.48842 61.158536,910.83663 64.664214,909.45302 C 68.277436,908.02696 86.094357,901.47902 87.71052,900.73146 C 89.326683,899.98389 88.333489,897.99038 85.720575,898.73795 C 83.138042,899.47683 64.53962,904.34468 53.699954,902.72496 C 42.982145,901.12344 41.314331,893.44289 42.860287,891.54283 C 44.355413,889.70524 45.649158,891.69132 48.09323,892.91336 C 50.585107,894.1593 81.383269,891.25729 84.848419,890.51476 C 88.337047,889.7672 87.215702,886.27856 83.727074,887.02613 C 80.357472,887.7482 48.716199,889.01964 45.85054,884.78344 C 42.887882,880.40385 42.321685,876.50278 44.604602,874.94764 C 46.971886,873.33503 49.338975,877.93564 52.402043,878.05538 C 55.589511,878.17997 84.848421,878.42915 96.311054,878.42915 C 107.77368,878.42915 111.57939,886.98879 108.39666,891.8853 C 105.15722,896.86906 106.09737,901.00358 109.39341,902.60036 C 112.73679,904.22008 115.13415,898.67175 122.60035,898.36417 z M 137.55162,877.83734 C 137.55162,878.64546 136.72182,878.92754 135.77616,878.92754 C 134.83049,878.92754 134.12529,878.64546 134.12529,877.83734 C 134.12529,877.02922 134.83049,876.68484 135.77616,876.68484 C 136.72182,876.68484 137.55162,877.02922 137.55162,877.83734 z "
       style="fill:#000000;fill-opacity:1;fill-rule:evenodd;stroke:none;stroke-width:1px;stroke-linecap:butt;stroke-linejoin:miter;stroke-opacity:1"
       id="path3223" />
  </g>
</svg>

<?xml version="1.0" encoding="UTF-8"?>
<svg version="1.0" viewBox="0 0 224.06 262.45" xmlns="http://www.w3.org/2000/svg" xmlns:cc="http://creativecommons.org/ns#" xmlns:dc="http://purl.org/dc/elements/1.1/" xmlns:rdf="http://www.w3.org/1999/02/22-rdf-syntax-ns#">
<metadata>
<rdf:RDF>
<cc:Work rdf:about="">
<dc:format>image/svg+xml</dc:format>
<dc:type rdf:resource="http://purl.org/dc/dcmitype/StillImage"/>
</cc:Work>
</rdf:RDF>
</metadata>
<g transform="translate(-26.013 -784.96)">
<path d="m27.013 785.96 4.0374 169.59c2.8839 121.14 211.1 121.14 213.98 0l4.0374-169.59h-222.06z" fill="#fff" fill-rule="evenodd" stroke="#000" stroke-width="2"/>
<path transform="translate(12.938 786.61)" d="m126 125h107.12l3-125.66-110.12 125.66zm0 0h-108.94l1.0625 43.938c0.57634 24.21 9.3622 43.561 23.062 58.094l84.812-102.03z"/>
<path transform="translate(12.938 786.61)" d="m14.062-0.65625 111.94 125.66v-125.66h-111.94zm111.94 125.66v134.78c33.927-0.22191 67.735-12.963 87.781-38.219l-87.781-96.562z"/>
<path transform="translate(12.938 786.61)" d="m16.062 83.344 2 83.219h214.09l1.9688-83.219h-218.06z" fill="#efd905" fill-rule="evenodd" stroke="#000" stroke-linecap="round" stroke-width="1.9984"/>
<path d="m122.6 898.36c7.3416-0.30759 8.2644-3.6859 9.9376-4.7624 1.7604-1.1326 5.2919-1.6596 5.1512-3.2984-0.14013-1.6328-2.268 0.632-5.3675-0.29567-3.0424-0.91058-3.7675-3.3176-3.8996-4.5279s2.5106 0.13264 3.4653 0.14063c0.74741 0.00625 1.2426-0.04099 1.3797-1.0357-5.6693-0.42421-10.126 1.3276-12.253 0.39169-2.0751-0.91302-4.2688-4.1778-1.8244-4.2191 2.3821-0.04133 1.6625 2.1289 5.2141 2.2657 3.5487 0.13671 7.4758-0.26962 8.8056-0.20882-0.08875-1.8635-2.8659-1.5011-7.6221-1.4078 1.6604-5.2642 6.0511-9.2122 12.34-8.9542 6.2828 0.25775 10.352 2.7866 10.419 10.128 0.06678 7.4662-3.9617 9.0372-3.8739 10.391 0.09181 1.4154 3.4116 4.9826 10.317 5.8918 6.9135 0.91022 9.4898 5.3575 12.833 3.7378 3.296-1.5968 4.2362-5.7313 0.99675-10.715-3.1827-4.8965 0.62298-13.456 12.086-13.456s40.722-0.24918 43.909-0.37377c3.0631-0.11974 5.4302-4.7204 7.7974-3.1077 2.2829 1.5551 1.7167 5.4562-1.2459 9.8358-2.8657 4.2362-34.507 2.9648-37.877 2.2427-3.4886-0.74757-4.61 2.7411-1.1214 3.4886 3.4652 0.74253 34.263 3.6445 36.755 2.3986 2.4441-1.222 3.7378-3.2081 5.2329-1.3705 1.546 1.9001-0.12185 9.5806-10.84 11.182-10.84 1.6197-29.438-3.2481-32.021-3.987-2.6129-0.74757-3.6061 1.2459-1.99 1.9935 1.6162 0.74756 19.433 7.2955 23.046 8.7216 3.5057 1.3836 5.919 1.0354 8.639 1.1466 2.7178 0.11114 6.4155-3.5275 8.8041-0.71732 2.4506 2.8832-4.5156 9.5383-13.955 9.7874-9.4414 0.24918-26.842-10.785-28.778-12.459-1.8725-1.6197-4.1187-0.24919-2.3708 1.2459 1.8209 1.5576 18.564 16.945 24.67 16.945 6.2297 0 6.5757 5.2329 1.2459 6.2297s-13.958-0.87215-18.066-4.8592-14.015-13.333-15.076-14.577c-1.1213-1.315-3.1148-0.37379-1.8689 1.3705 1.3056 1.8278 8.0986 13.501 9.9675 13.955 1.9868 0.48212 4.61 3.987-0.62297 3.987s-10.602-5.1001-12.605-9.5937c-2.0486-4.5974-2.2605-5.2492-3.829-7.5355-1.6261-2.3703-3.3727-2.1382-3.2522 1.555 0.12458 3.8177 2.2938 6.1064 3.8618 8.2309 1.5229 2.0634-0.72293 4.9273-4.7339 2.7334-4.0646-2.2232-5.4433-6.761-6.6771-9.7495-1.2164-2.9465 0.32492-6.6414-3.415-6.6414-3.7378 0-9.9227 1.0658-2.8657 7.7939 6.992 6.6661 9.4691 9.4691 9.4691 11.213s10.715 6.6035 12.584 7.4756c1.7672 0.82471 4.1267 1.9205 5.7678-0.60159 1.6154-2.4826 7.9081-4.8956 9.5394-2.8417 1.5887 2.0004 1.5885 1.9179-1.0644 1.9909-2.5649 0.07298-5.7891 3.3729-2.4064 3.1967 3.4706-0.18078 8.6461 2.6096 8.7643 5.0567 0.11834 2.4498-2.5774 4.6918-2.8114 2.1723-0.23497-2.5291-11.537-5.7073-8.9431-3.2269 2.6378 2.5221 4.7497 2.2427 4.7497 6.4789s-0.90407 2.7009-4.8831-1.7745c-4.0177-4.5189-6.1265-6.271-10.113-1.6404s-0.9108 7.8594-4.2915 4.6786c-3.337-3.1398 2.4019-6.421 3.1067-7.7123 0.72598-1.3301 1.7134-2.7864-1.7753-3.7832s-8.3587-4.8489-9.9978-4.4703c-1.6562 0.38265-4.206-1.261-7.6946-4.5005s-8.2232-7.2264-9.4691-1.2459c-1.2459 5.9805 0.99676 9.7032 7.2442 9.2778 6.242-0.42501 8.2096-0.72661 10.509 3.5793 2.3183 4.342 0.6871 5.8319-1.0572 4.0876-1.7443-1.7443-3.8437-1.2461-4.5735 0.36752-0.76268 1.6864-5.1876-0.36752-6.64-1.6135-1.4626-1.2547-4.5734-3.6679-4.6465-0.30705-0.07299 3.3578-0.23408 6.0686-4.2842 6.0686s-4.2112-2.7108-4.2842-6.0686c-0.07306-3.3608-3.1838-0.94769-4.6465 0.30705-1.4524 1.2459-5.8773 3.2999-6.64 1.6135-0.72976-1.6136-2.8292-2.1118-4.5735-0.36752-1.7443 1.7443-3.3755 0.25438-1.0572-4.0876 2.299-4.306 4.2666-4.0044 10.509-3.5793 6.2474 0.42539 8.4901-3.2973 7.2442-9.2778-1.2459-5.9805-5.9805-1.9935-9.4691 1.2459s-6.0384 4.8831-7.6946 4.5005c-1.639-0.37867-6.5091 3.4735-9.9978 4.4703s-2.5012 2.4531-1.7753 3.7832c0.70481 1.2913 6.4438 4.5725 3.1067 7.7123-3.3807 3.1808-0.30447-0.04794-4.2915-4.6786s-6.0958-2.8785-10.113 1.6404c-3.9791 4.4754-4.8831 6.0107-4.8831 1.7745s2.1118-3.9568 4.7497-6.4789c2.5942-2.4804-8.7082 0.69778-8.9431 3.2269-0.23407 2.5195-2.9298 0.27754-2.8115-2.1723 0.1182-2.4472 5.2938-5.2375 8.7643-5.0567 3.3827 0.1762 0.15849-3.1237-2.4064-3.1967-2.653-0.07298-2.6532 0.00949-1.0644-1.9909 1.6313-2.054 7.924 0.35908 9.5394 2.8417 1.6411 2.5221 4.0006 1.4263 5.7678 0.60159 1.8689-0.87215 12.584-5.7313 12.584-7.4756s2.4771-4.5473 9.4691-11.213c7.057-6.7281 0.87215-7.7939-2.8657-7.7939-3.7399 0-2.1985 3.6949-3.415 6.6414-1.2338 2.9885-2.6125 7.5263-6.6771 9.7495-4.011 2.1939-6.2568-0.66994-4.7339-2.7334 1.568-2.1245 3.7372-4.4132 3.8618-8.2309 0.12052-3.6933-1.6261-3.9253-3.2522-1.555-1.5685 2.2863-1.7804 2.9382-3.829 7.5355-2.0024 4.4937-7.3717 9.5937-12.605 9.5937s-2.6097-3.5049-0.62297-3.987c1.8689-0.45353 8.662-12.127 9.9675-13.955 1.2459-1.7443-0.74757-2.6855-1.8689-1.3705-1.0611 1.2444-10.968 10.59-15.076 14.577s-12.736 5.8559-18.066 4.8592-4.9838-6.2297 1.2459-6.2297c6.1051-1e-5 22.849-15.387 24.67-16.945 1.7479-1.4951-0.49838-2.8656-2.3708-1.2459-1.9354 1.6742-19.336 12.709-28.778 12.459-9.4389-0.24912-16.405-6.9042-13.955-9.7874 2.3886-2.8102 6.0863 0.82846 8.8041 0.71732 2.72-0.11124 5.1334 0.23697 8.6391-1.1466 3.6132-1.4261 21.43-7.974 23.046-8.7216 1.6162-0.74757 0.62297-2.7411-1.9899-1.9935-2.5825 0.73888-21.181 5.6067-32.021 3.987-10.718-1.6015-12.386-9.2821-10.84-11.182 1.4951-1.8376 2.7889 0.14849 5.2329 1.3705 2.4919 1.2459 33.29-1.6561 36.755-2.3986 3.4886-0.74756 2.3673-4.2362-1.1213-3.4886-3.3696 0.72207-35.011 1.9935-37.877-2.2427-2.9627-4.3796-3.5289-8.2807-1.2459-9.8358 2.3673-1.6126 4.7344 2.988 7.7974 3.1077 3.1875 0.12459 32.446 0.37377 43.909 0.37377 11.463 0 15.268 8.5596 12.086 13.456-3.2394 4.9838-2.2993 9.1183 0.99675 10.715 3.3434 1.6197 5.7407-3.9286 13.207-4.2362zm14.951-20.527c0 0.80812-0.8298 1.0902-1.7755 1.0902-0.94567 0-1.6509-0.28208-1.6509-1.0902s0.7052-1.1525 1.6509-1.1525c0.94566 0 1.7755 0.34438 1.7755 1.1525z" fill-rule="evenodd"/>
</g>
</svg>
